gtk/icons/dialog-password-symbolic.svg

<svg width='16' height='16'
     xmlns:gpa='https://www.gtk.org/grappa'
     gpa:version='1'
     gpa:keywords='key password unlock lock safe'>
  <path d='M 5 3.5 C 5.8261714 3.5, 6.5 4.1738286, 6.5 5 C 6.5 5.8261714, 5.8261714 6.5, 5 6.5 C 4.1738286 6.5, 3.5 5.8261714, 3.5 5 C 3.5 4.1738286, 4.1738286 3.5, 5 3.5 Z'
        id='path0'
        stroke-width='1'
        stroke-linecap='round'
        stroke-linejoin='round'
        stroke='rgb(0,0,0)'
        fill='none'
        class='foreground-stroke transparent-fill'/>
  <path d='M 6 1 C 3.23828101 1, 1 3.23828101, 1 6 C 1 8.76171875, 3.23828101 11, 6 11 C 6.83203077 10.9961004, 7.65234423 10.7851562, 8.38281155 10.3828115 L 9 11 L 9 13 L 11 13 L 11 15 L 15 15 L 15 12 L 10.6914062 7.69140577 C 10.890625 7.14843798, 10.9960938 6.578125, 11 6 C 11 3.23828101, 8.76171875 1, 6 1 Z'
        id='path1'
        stroke-width='2'
        stroke-linecap='round'
        stroke-linejoin='round'
        stroke='rgb(0,0,0)'
        fill='none'
        class='foreground-stroke transparent-fill'/>
</svg>

<?xml version="1.0" encoding="UTF-8"?>
<svg height="16px" viewBox="0 0 16 16" width="16px" xmlns="http://www.w3.org/2000/svg">
    <path d="m 6 1 c -2.761719 0 -5 2.238281 -5 5 s 2.238281 5 5 5 c 0.832031 -0.003906 1.652344 -0.214844 2.382812 -0.617188 l 0.617188 0.617188 v 2 h 2 v 2 h 4 v -3 l -4.308594 -4.308594 c 0.199219 -0.542968 0.304688 -1.113281 0.308594 -1.691406 c 0 -2.761719 -2.238281 -5 -5 -5 z m -1 3 c 0.550781 0 1 0.449219 1 1 s -0.449219 1 -1 1 s -1 -0.449219 -1 -1 s 0.449219 -1 1 -1 z m 0 0" fill="#2e3436"/>
</svg>
